app/img/solutions/ic_impact.svg

<svg width="41" height="38" viewBox="0 0 41 38" fill="none" xmlns="http://www.w3.org/2000/svg">
    <path d="M20.6367 15.1428C22.0148 15.1428 23.3619 14.7281 24.5078 13.9511C25.6536 13.1741 26.5467 12.0697 27.074 10.7775C27.6014 9.48541 27.7394 8.06358 27.4705 6.69186C27.2017 5.32014 26.5381 4.06013 25.5636 3.07117C24.5892 2.08222 23.3476 1.40873 21.996 1.13588C20.6444 0.863026 19.2434 1.00306 17.9702 1.53828C16.6971 2.0735 15.6088 2.97986 14.8432 4.14275C14.0776 5.30564 13.6689 6.67283 13.6689 8.07142C13.6711 9.9462 14.4059 11.7436 15.7122 13.0692C17.0184 14.3949 18.7894 15.1406 20.6367 15.1428V15.1428ZM22.8822 13.3878C22.1729 13.6974 21.4088 13.8571 20.6367 13.8571C19.8645 13.8571 19.1005 13.6974 18.3912 13.3878V10.3214C18.3912 10.0657 18.4913 9.82041 18.6695 9.63957C18.8477 9.45873 19.0893 9.35714 19.3413 9.35714H21.9321C22.184 9.35714 22.4257 9.45873 22.6039 9.63957C22.7821 9.82041 22.8822 10.0657 22.8822 10.3214V13.3878ZM19.5282 6.30357C19.5282 6.08107 19.5932 5.86356 19.715 5.67855C19.8368 5.49355 20.0099 5.34935 20.2125 5.26421C20.415 5.17906 20.6379 5.15678 20.8529 5.20019C21.068 5.2436 21.2655 5.35074 21.4205 5.50807C21.5755 5.66541 21.6811 5.86586 21.7239 6.08409C21.7667 6.30232 21.7447 6.52852 21.6608 6.73409C21.5769 6.93965 21.4348 7.11536 21.2525 7.23897C21.0702 7.36259 20.8559 7.42857 20.6367 7.42857C20.3428 7.42823 20.061 7.30959 19.8532 7.09869C19.6454 6.88778 19.5285 6.60183 19.5282 6.30357V6.30357ZM20.6367 2.28572C21.8228 2.28439 22.9797 2.65897 23.9459 3.35718C24.9121 4.05539 25.6394 5.04236 26.0262 6.18032C26.413 7.31828 26.44 8.55041 26.1035 9.70471C25.767 10.859 25.0837 11.8778 24.1491 12.619V10.3214C24.1474 9.77442 23.949 9.24686 23.5911 8.83779C23.2333 8.42871 22.7407 8.16626 22.2057 8.09971C22.5681 7.77611 22.8248 7.34811 22.9415 6.87274C23.0583 6.39737 23.0295 5.89718 22.8591 5.4388C22.6887 4.98042 22.3848 4.58561 21.9877 4.30696C21.5907 4.02831 21.1194 3.87904 20.6367 3.87904C20.154 3.87904 19.6827 4.02831 19.2856 4.30696C18.8886 4.58561 18.5846 4.98042 18.4142 5.4388C18.2438 5.89718 18.2151 6.39737 18.3318 6.87274C18.4486 7.34811 18.7052 7.77611 19.0677 8.09971C18.5327 8.16626 18.04 8.42871 17.6822 8.83779C17.3244 9.24686 17.126 9.77442 17.1243 10.3214V12.619C16.1897 11.8778 15.5064 10.859 15.1699 9.70471C14.8333 8.55041 14.8604 7.31828 15.2472 6.18032C15.634 5.04236 16.3612 4.05539 17.3274 3.35718C18.2937 2.65897 19.4506 2.28439 20.6367 2.28572Z"
          fill="#7CEA57" stroke="#7CEA57" stroke-width="0.5"/>
    <path d="M20.3026 17.0714C20.1369 17.0714 20.0026 17.2057 20.0026 17.3714V24.1428H18.1023C17.9876 24.1428 17.8751 24.1744 17.7767 24.2342C17.6783 24.294 17.5978 24.3798 17.5437 24.4824C17.4896 24.585 17.4639 24.7006 17.4695 24.8169C17.4751 24.9331 17.5116 25.0457 17.5753 25.1425L20.109 28.9996C20.1668 29.0877 20.2452 29.1598 20.3371 29.2098C20.4291 29.2597 20.5317 29.2858 20.636 29.2858C20.7403 29.2858 20.8429 29.2597 20.9349 29.2098C21.0268 29.1598 21.1052 29.0877 21.163 28.9996L23.6967 25.1425C23.7604 25.0457 23.7969 24.9331 23.8025 24.8169C23.8081 24.7006 23.7824 24.585 23.7283 24.4824C23.6742 24.3798 23.5937 24.294 23.4953 24.2342C23.3969 24.1744 23.2844 24.1428 23.1697 24.1428H21.2694V17.3714C21.2694 17.2057 21.1351 17.0714 20.9694 17.0714H20.3026ZM21.9858 25.4285L20.636 27.4857L19.2862 25.4285H21.9858Z"
          fill="#7CEA57" stroke="#7CEA57" stroke-width="0.5"/>
    <path d="M14.1736 24.3349C14.3324 24.2905 14.4286 24.1281 14.3879 23.9682L14.2192 23.3051C14.1781 23.1439 14.013 23.0467 13.8527 23.0913C10.1616 24.1175 7.96875 25.9412 7.96875 27.9999C7.96875 31.2444 13.5334 33.7856 20.6374 33.7856C27.7413 33.7856 33.306 31.2444 33.306 27.9999C33.306 25.9412 31.1131 24.1175 27.4221 23.0913C27.2617 23.0467 27.0966 23.1439 27.0556 23.3051L26.8868 23.9682C26.8462 24.1281 26.9423 24.2905 27.1012 24.3349C30.1115 25.1762 32.0391 26.5995 32.0391 27.9999C32.0391 30.6516 26.0304 32.4999 20.6374 32.4999C15.2443 32.4999 9.23561 30.6516 9.23561 27.9999C9.23561 26.5995 11.1632 25.1762 14.1736 24.3349Z"
          fill="#022AF0" stroke="#022AF0" stroke-width="0.3"/>
    <path d="M29.2972 19.9C29.1348 19.8641 28.9735 19.9683 28.9399 20.1312L28.8014 20.8023C28.7681 20.9639 28.873 21.1223 29.0341 21.158C35.1031 22.501 39.0059 25.1718 39.0059 28.0001C39.0059 32.1819 30.5939 35.7144 20.6364 35.7144C10.6788 35.7144 2.26686 32.1819 2.26686 28.0001C2.26686 25.1716 6.17013 22.5007 12.2369 21.1583C12.3975 21.1228 12.5023 20.9653 12.4699 20.8041L12.3349 20.1329C12.3019 19.9693 12.1402 19.8642 11.9773 19.9003C5.19629 21.3991 1 24.4885 1 28.0001C1 33.0472 9.62543 37.0001 20.6364 37.0001C31.6473 37.0001 40.2727 33.0472 40.2727 28.0001C40.2727 24.4883 36.0759 21.3987 29.2972 19.9Z"
          fill="#022AF0" stroke="#022AF0" stroke-width="0.3"/>
</svg>

<svg width="41" height="38" fill="none" xmlns="http://www.w3.org/2000/svg"><path d="M20.637 15.143a6.896 6.896 0 0 0 3.87-1.192 7.05 7.05 0 0 0 2.567-3.174 7.168 7.168 0 0 0 .396-4.085 7.104 7.104 0 0 0-1.906-3.62 6.937 6.937 0 0 0-3.568-1.936 6.873 6.873 0 0 0-4.026.402 6.991 6.991 0 0 0-3.127 2.605 7.147 7.147 0 0 0 .87 8.926 6.924 6.924 0 0 0 4.924 2.074Zm2.245-1.755a5.612 5.612 0 0 1-4.49 0V10.32c0-.255.1-.5.277-.681a.943.943 0 0 1 .672-.283h2.591c.252 0 .494.102.672.283.178.18.278.426.278.681v3.067Zm-3.354-7.084c0-.223.065-.44.187-.625s.295-.33.497-.415a1.093 1.093 0 0 1 1.209.244 1.13 1.13 0 0 1 .24 1.226 1.122 1.122 0 0 1-.409.505 1.097 1.097 0 0 1-1.399-.14 1.135 1.135 0 0 1-.325-.795Zm1.109-4.018a5.637 5.637 0 0 1 3.309 1.071 5.773 5.773 0 0 1 2.08 2.823 5.861 5.861 0 0 1 .078 3.525 5.783 5.783 0 0 1-1.955 2.914v-2.298a2.264 2.264 0 0 0-.558-1.483 2.202 2.202 0 0 0-1.385-.738c.362-.324.619-.752.736-1.227a2.444 2.444 0 0 0-.083-1.434 2.405 2.405 0 0 0-.871-1.132 2.351 2.351 0 0 0-2.702 0 2.406 2.406 0 0 0-.872 1.132c-.17.458-.199.958-.082 1.434.117.475.373.903.736 1.227a2.203 2.203 0 0 0-1.386.738c-.358.409-.556.936-.558 1.483v2.298a5.783 5.783 0 0 1-1.954-2.914 5.86 5.86 0 0 1 .077-3.525 5.772 5.772 0 0 1 2.08-2.823 5.638 5.638 0 0 1 3.31-1.071ZM20.303 17.071a.3.3 0 0 0-.3.3v6.772h-1.9a.627.627 0 0 0-.56.34.65.65 0 0 0 .032.66L20.11 29a.637.637 0 0 0 .527.286.627.627 0 0 0 .527-.286l2.534-3.858a.65.65 0 0 0-.202-.908.627.627 0 0 0-.325-.091h-1.9V17.37a.3.3 0 0 0-.3-.3h-.667Zm1.683 8.357-1.35 2.058-1.35-2.058h2.7Z" fill="#7CEA57" stroke="#7CEA57" stroke-width=".5"/><path d="M14.174 24.335a.304.304 0 0 0 .214-.367l-.169-.663a.297.297 0 0 0-.366-.214c-3.691 1.026-5.884 2.85-5.884 4.909 0 3.244 5.564 5.786 12.668 5.786 7.104 0 12.669-2.542 12.669-5.786 0-2.059-2.193-3.883-5.884-4.909a.297.297 0 0 0-.366.214l-.17.663c-.04.16.056.323.215.367 3.01.841 4.938 2.264 4.938 3.665 0 2.652-6.009 4.5-11.402 4.5-5.393 0-11.401-1.848-11.401-4.5 0-1.4 1.927-2.824 4.938-3.665Z" fill="#022AF0" stroke="#022AF0" stroke-width=".3"/><path d="M29.297 19.9a.3.3 0 0 0-.357.231l-.139.671a.303.303 0 0 0 .233.356c6.07 1.343 9.972 4.014 9.972 6.842 0 4.182-8.412 7.714-18.37 7.714-9.957 0-18.37-3.532-18.37-7.714 0-2.828 3.904-5.5 9.97-6.842a.303.303 0 0 0 .234-.354l-.135-.671a.3.3 0 0 0-.358-.233C5.197 21.4 1 24.488 1 28c0 5.047 8.625 9 19.636 9s19.637-3.953 19.637-9c0-3.512-4.197-6.601-10.976-8.1Z" fill="#022AF0" stroke="#022AF0" stroke-width=".3"/></svg>
